!!!OTL: Der Emmenthaler Kuehreigen
!!!ARE: Europa, Mitteleuropa, Deutschland
!!!SCT: A0484B
!!!YEM: Copyright 1995, estate of Helmut Schaffrath.
**kern
*ICvox
*Ivox
*M4/4
*k[f#c#g#d#]
*E:
{8ee
8dd#
=1
4ee
8ddn
8cc#
8ddn
8cc#
8b
8a
=2
4b
4e
4r}
{8ee
8dd#
=3
4ee
8ddn
8cc#
8ddn
8cc#
4a
=4
2b
4r}
{8b
8a
=5
4g#
4e
8a
8g#
8a
8b
=6
4ccn
4a
4r}
{8ee
8dd#
=7
4ee
8ddn
8cc#
8ddn
8cc#
4a
=8
2a
8e
8r}
==
!!!AGN: Romanze, Ballade, Lied
!! Mitgetheilt in Bueschings Volksliedern 1807. Melodieheft S. 30.
!!!ONB: ESAC (Essen Associative Code) Database: ALTDEU
!!!AMT: simple quadruple
!!!AIN: vox
!!!EED: Helmut Schaffrath
!!!EEV: 1.0
*-
